svg/blobs-icons/no-decorations/apple-pie.svg

<svg xmlns="http://www.w3.org/2000/svg" xmlns:xlink="http://www.w3.org/1999/xlink" preserveAspectRatio="xMidYMid" width="216" height="97" viewBox="0 0 216 97"><defs><style>.cls-3{fill:#fbb713}.cls-4{fill:#000;opacity:.25}.cls-5{fill:#142a3b}.cls-6{fill:#000;opacity:.35}.cls-10{fill:#fff}</style></defs><g id="group-103svg"><path d="M200.951 50.166c0-27.709-41.721-50.172-93.188-50.172-51.466.0-93.188 22.463-93.188 50.172H200.951z" id="path-1" class="cls-3" fill-rule="evenodd"/><path d="M162.175 9.447C164.896 11.758 167.278 14.197 169.28 16.743 175.506 24.655 169.907 36.261 159.839 36.261H18.229C15.866 40.678 14.575 45.34 14.575 50.167H200.952c0-16.772-15.3-31.61-38.777-40.72z" id="path-2" class="cls-4" fill-rule="evenodd"/><path d="M174.347 96.863s-133.168.0-133.168.0S-.007 48.19-.007 48.19s215.54.0 215.54.0-41.186 48.673-41.186 48.673z" id="path-3" class="cls-5" fill-rule="evenodd"/><path d="M184.245 48.191s-41.186 48.672-41.186 48.672 31.288.0 31.288.0 41.186-48.672 41.186-48.672-31.288.0-31.288.0z" id="path-4" class="cls-6" fill-rule="evenodd"/><path d="M103.904 38.572C101.92 38.572 100.311 36.963 100.311 34.98V18.987C100.311 17.003 101.92 15.394 103.904 15.394c1.983.0 3.592 1.609 3.592 3.593V34.98C107.496 36.963 105.887 38.572 103.904 38.572z" id="path-5" class="cls-5" fill-rule="evenodd"/><path d="M150.673 36.229C149.746 36.229 148.818 35.873 148.117 35.161L136.952 23.853C135.557 22.441 135.572 20.165 136.984 18.773 138.394 17.381 140.671 17.391 142.063 18.804l11.165 11.309C154.622 31.525 154.608 33.8 153.196 35.192 152.497 35.883 151.585 36.229 150.673 36.229z" id="path-6" class="cls-5" fill-rule="evenodd"/><path d="M57.137 36.229C56.224 36.229 55.312 35.883 54.612 35.192 53.2 33.8 53.186 31.525 54.581 30.113L65.742 18.804C67.136 17.391 69.412 17.381 70.824 18.771 72.236 20.165 72.249 22.441 70.855 23.853L59.694 35.161C58.991 35.873 58.063 36.229 57.137 36.229z" id="path-7" class="cls-5" fill-rule="evenodd"/><path d="M45.654 26.81C44.683 26.81 43.715 26.418 43.006 25.646 41.668 24.185 41.762 21.918 43.222 20.576 43.674 20.16 54.498 10.336 71.104 5.972 73.02 5.467 74.986 6.616 75.492 8.536 75.995 10.452 74.847 12.416 72.929 12.922 58.117 16.814 48.179 25.78 48.08 25.87 47.391 26.499 46.521 26.81 45.654 26.81z" id="path-8" class="cls-10" fill-rule="evenodd"/></g></svg>

<svg xmlns="http://www.w3.org/2000/svg" xmlns:xlink="http://www.w3.org/1999/xlink" preserveAspectRatio="xMidYMid" width="216" height="97" viewBox="0 0 216 97">
  <defs>
    <style>

      .cls-3 {
        fill: #fbb713;
      }

      .cls-4 {
        fill: #000000;
        opacity: 0.25;
      }

      .cls-5 {
        fill: #142a3b;
      }

      .cls-6 {
        fill: #000000;
        opacity: 0.35;
      }

      .cls-10 {
        fill: #ffffff;
      }
    </style>
  </defs>
  <g id="group-103svg">
    <path d="M200.951,50.166 C200.951,22.457 159.230,-0.006 107.763,-0.006 C56.297,-0.006 14.575,22.457 14.575,50.166 C14.575,50.166 200.951,50.166 200.951,50.166 Z" id="path-1" class="cls-3" fill-rule="evenodd"/>
    <path d="M162.175,9.447 C164.896,11.758 167.278,14.197 169.280,16.743 C175.506,24.655 169.907,36.261 159.839,36.261 C159.839,36.261 18.229,36.261 18.229,36.261 C15.866,40.678 14.575,45.340 14.575,50.167 C14.575,50.167 200.952,50.167 200.952,50.167 C200.952,33.395 185.652,18.557 162.175,9.447 Z" id="path-2" class="cls-4" fill-rule="evenodd"/>
    <path d="M174.347,96.863 C174.347,96.863 41.179,96.863 41.179,96.863 C41.179,96.863 -0.007,48.190 -0.007,48.190 C-0.007,48.190 215.533,48.190 215.533,48.190 C215.533,48.190 174.347,96.863 174.347,96.863 Z" id="path-3" class="cls-5" fill-rule="evenodd"/>
    <path d="M184.245,48.191 C184.245,48.191 143.059,96.863 143.059,96.863 C143.059,96.863 174.347,96.863 174.347,96.863 C174.347,96.863 215.533,48.191 215.533,48.191 C215.533,48.191 184.245,48.191 184.245,48.191 Z" id="path-4" class="cls-6" fill-rule="evenodd"/>
    <path d="M103.904,38.572 C101.920,38.572 100.311,36.963 100.311,34.980 C100.311,34.980 100.311,18.987 100.311,18.987 C100.311,17.003 101.920,15.394 103.904,15.394 C105.887,15.394 107.496,17.003 107.496,18.987 C107.496,18.987 107.496,34.980 107.496,34.980 C107.496,36.963 105.887,38.572 103.904,38.572 Z" id="path-5" class="cls-5" fill-rule="evenodd"/>
    <path d="M150.673,36.229 C149.746,36.229 148.818,35.873 148.117,35.161 C148.117,35.161 136.952,23.853 136.952,23.853 C135.557,22.441 135.572,20.165 136.984,18.773 C138.394,17.381 140.671,17.391 142.063,18.804 C142.063,18.804 153.228,30.113 153.228,30.113 C154.622,31.525 154.608,33.800 153.196,35.192 C152.497,35.883 151.585,36.229 150.673,36.229 Z" id="path-6" class="cls-5" fill-rule="evenodd"/>
    <path d="M57.137,36.229 C56.224,36.229 55.312,35.883 54.612,35.192 C53.200,33.800 53.186,31.525 54.581,30.113 C54.581,30.113 65.742,18.804 65.742,18.804 C67.136,17.391 69.412,17.381 70.824,18.771 C72.236,20.165 72.249,22.441 70.855,23.853 C70.855,23.853 59.694,35.161 59.694,35.161 C58.991,35.873 58.063,36.229 57.137,36.229 Z" id="path-7" class="cls-5" fill-rule="evenodd"/>
    <path d="M45.654,26.810 C44.683,26.810 43.715,26.418 43.006,25.646 C41.668,24.185 41.762,21.918 43.222,20.576 C43.674,20.160 54.498,10.336 71.104,5.972 C73.020,5.467 74.986,6.616 75.492,8.536 C75.995,10.452 74.847,12.416 72.929,12.922 C58.117,16.814 48.179,25.780 48.080,25.870 C47.391,26.499 46.521,26.810 45.654,26.810 Z" id="path-8" class="cls-10" fill-rule="evenodd"/>
  </g>
</svg>
